Facilitet_punkt_5800_Piktogrammer/Cirkel/SVG/FRI TELTNING.svg

<svg xmlns="http://www.w3.org/2000/svg" width="5.5mm" height="5.5mm" viewBox="0 0 15.591 15.591">
  <rect width="15.591" height="15.591" rx="7.795" fill="#031E3A"/>
  <g>
    <path d="M13.075,11.845,10.241,6.938a.263.263,0,0,0-.456,0L6.952,11.845a.263.263,0,0,0,.228.395H8.356A.474.474,0,0,0,8.766,12l1.019-1.766a.263.263,0,0,1,.456,0l1.022,1.769a.466.466,0,0,0,.4.233h1.179A.264.264,0,0,0,13.075,11.845Z" fill="#fff"/>
    <path d="M7.773,9.117S6.111,6.236,6.092,6.205a.059.059,0,0,1,.047-.091h.655A.213.213,0,0,0,6.979,5.8L5.038,2.434a.213.213,0,0,0-.369,0L2.729,5.8a.213.213,0,0,0,.185.319H3.57a.061.061,0,0,1,.051.083L1.935,9.117a.213.213,0,0,0,.184.32H4.246a.205.205,0,0,1,.2.205v2.226a.4.4,0,0,0,.806,0V9.65a.213.213,0,0,1,.213-.213H7.588A.214.214,0,0,0,7.773,9.117Z" fill="#fff"/>
  </g>
</svg>

<?xml version="1.0" encoding="UTF-8"?>
<svg xmlns="http://www.w3.org/2000/svg" viewBox="0 0 15.59 15.59">
  <defs>
    <style>
      .cls-1 {
        fill: #071f39;
      }

      .cls-1, .cls-2 {
        stroke-width: 0px;
      }

      .cls-2 {
        fill: #fff;
      }
    </style>
  </defs>
  <g id="Cirkel">
    <rect class="cls-1" x="0" y="0" width="15.59" height="15.59" rx="7.8" ry="7.8"/>
  </g>
  <g id="ICONS">
    <g>
      <path class="cls-2" d="M13.07,11.84l-2.83-4.91c-.1-.18-.35-.18-.46,0l-2.83,4.91c-.1.18.03.4.23.4h1.18c.17,0,.32-.09.41-.24l1.02-1.77c.1-.18.35-.18.46,0l1.02,1.77c.08.14.24.23.4.23h1.18c.2,0,.33-.22.23-.4Z"/>
      <path class="cls-2" d="M7.77,9.12s-1.66-2.88-1.68-2.91c-.02-.03,0-.09.05-.09h.65c.16,0,.27-.18.18-.32l-1.94-3.36c-.08-.14-.29-.14-.37,0l-1.94,3.36c-.08.14.02.32.18.32,0,0,.6,0,.66,0,.04,0,.07.06.05.08-.02.03-1.69,2.92-1.69,2.92-.08.14.02.32.18.32h2.13c.11,0,.21.09.21.21v2.23c0,.22.18.4.4.4s.4-.18.4-.4v-2.22c0-.12.1-.21.21-.21h2.12c.16,0,.27-.18.18-.32Z"/>
    </g>
  </g>
</svg>
